assets/icon_blockchain.svg

<svg width="26" height="26" viewBox="0 0 26 26" fill="none" xmlns="http://www.w3.org/2000/svg">
<path d="M13.9235 15.1572C13.2534 15.5063 12.4555 15.515 11.7791 15.1846L6.052 12.3811V16.3006L12.8228 19.7002L19.5937 16.3006V12.196L13.9235 15.1572ZM12.6835 4.77916C12.7714 4.73508 12.8743 4.73507 12.9622 4.77916L19.5784 8.10151C19.8067 8.21621 19.809 8.54278 19.5825 8.661L12.95 12.1227L12.8818 12.1481C12.8113 12.1658 12.736 12.1584 12.6692 12.1258L5.83431 8.78205C5.60146 8.66814 5.59966 8.33588 5.83126 8.21951L12.6835 4.77916ZM8.78231 8.484L12.7872 10.4432L16.6986 8.40262L12.8218 6.45661L8.78231 8.484ZM21.144 17.1571C21.1201 17.2401 21.0625 17.3106 20.9832 17.3504L12.9622 21.3787C12.8963 21.4117 12.8219 21.4206 12.7516 21.4041L12.6835 21.3787L4.66243 17.3504C4.58319 17.3106 4.52555 17.2401 4.50171 17.1571L4.4895 17.0706L4.4895 10.3802C4.4895 10.1482 4.73155 9.99577 4.93913 10.0974L12.4648 13.7808C12.6969 13.8942 12.9712 13.891 13.2002 13.7717L20.6994 9.85627C20.9074 9.7477 21.1561 9.89956 21.1562 10.135L21.1562 17.0706L21.144 17.1571Z" fill="#BCBDBD"/>
</svg>

<?xml version="1.0" encoding="UTF-8"?>
<svg id="Layer_1" xmlns="http://www.w3.org/2000/svg" version="1.1" viewBox="0 0 26 26">
  <!-- Generator: Adobe Illustrator 29.7.1, SVG Export Plug-In . SVG Version: 2.1.1 Build 8)  -->
  <defs>
    <style>
      .st0 {
        fill: #797a7b;
      }
    </style>
  </defs>
  <path class="st0" d="M13.9,15.2c-.7.3-1.5.4-2.1,0l-5.7-2.8v3.9l6.8,3.4,6.8-3.4v-4.1l-5.7,3ZM12.7,4.8c0,0,.2,0,.3,0l6.6,3.3c.2.1.2.4,0,.6l-6.6,3.5h0c0,0-.1,0-.2,0l-6.8-3.3c-.2-.1-.2-.4,0-.6l6.9-3.4ZM8.8,8.5l4,2,3.9-2-3.9-1.9-4,2ZM21.1,17.2c0,0,0,.2-.2.2l-8,4c0,0-.1,0-.2,0h0s-8-4.1-8-4.1c0,0-.1-.1-.2-.2h0v-6.8c0-.2.2-.4.4-.3l7.5,3.7c.2.1.5.1.7,0l7.5-3.9c.2-.1.5,0,.5.3v6.9h0Z"/>
</svg>
